!!!OTL: 1694. Altes Trinklied der Studenten.
!!!ODT: 1679
!!!ARE: Europa, Mitteleuropa, Deutschland
!!!SCT: E1694
!!!TXL: @@DE, (@@LAT)
!!!YEM: Copyright 1995, estate of Helmut Schaffrath.
**kern	**text
*ICvox	*
*M4/4	*
*met(c)	*
*k[b-]	*
*d:	*
=1	=1
!LO:TX:a:t=Solo.	!
!LO:TX:a:t=Mel. 1679.	!
{4d	Wer-
4d	-den
4d	wir
4e	ſo
=2	=2
4f	trau-
4f	-rig
4d}	ſein,
{4e	gebt
=3	=3
4f	uns
4f	ein
4g	größ-
4g	-res
=4	=4
2.a	Glas!
4r}	.
=5	=5
{4d	Hol-
4d	-la!
4d	Wirth,
4e	den
=6	=6
4f	be-
4f	-ſten
4d}	Wein,
{4e	geht
=7	=7
4f	vor
4f	das
4g	größ-
4g	-te
=8	=8
2.a	Faß!
4r}	.
=9	=9
!LO:TX:a:t=Chor.	!
{4a	Al-
4a	-le
4dd	mei-
4dd	-ne
=10	=10
4.cc	Le-
8b	-be-
4a}	-tag
{4b	und
=11	=11
4cc	im-
4cc	-mer
4.b/	ſo
8a	da-
=12	=12
2.a	-her,
4r}	.
=13	=13
{2f	a-
2g	-ber-
=14	=14
2.a}	-mal
{4f	und
=15	=15
4g	im-
4f	-mer
4.e	ſo
8d	da-
=16	=16
2d	-her.
4dd	Job!
4r}	.
==	==
!!!AGN: Staende -, Studenten - Lied, Trink - Lied
!!!ONB: ESAC (Essen Associative Code) Database: ERK3
!!!AMT: simple quadruple
!!!AIN: vox
!!!EED: Helmut Schaffrath
!!!EEV: 1.0
!!!GTL: Staendelieder (Berufslieder). 10. Einige Studentenlieder.
!!!URL-scan: https://rosdok.uni-rostock.de/mcrviewer/recordIdentifier/rosdok_ppn745177999/iview2/phys_0500.iview2?x=-449.8344612962892&y=1635.0345812609885&scale=0.47549036216460333&rotation=0&layout=singlePageLayout
!!!ENC: Anna Maria Matuszewska
!!!EEV: 2025/08/01
*-	*-
